X: 20302
M: 6/8
L: 1/8
K: A
c3- cde | (f2e) edc | B2B BcB | A3 EAB |\
c3- cde | (f2e) edc | B3- BcB | A3 z :|
c3- ccd | (f2e) edc | B3- BcB | A3 z2 :|


